!!!!SEGMENT: pl-kk--kk-i-40--006-002_lasso-orlando-di--missa-ad-placitum-et-in-terra.krn
!!!cenid: 16xx:1298
!!!COM: Lasso, Orlando di
!!!COM-rismid: pe506
!!!CDT: ~1532-1594/06/14
!!!CNT: French-Flemish
!!!OPR: Missa ad Placitum
!!!OTL: Et in terra
!!!OMV: 002
!!!PDT:
!!!AGN: Sacred; Mass
!!!SMS-siglum: PL-Kk
!!!SMS-shelfmark: Kk.I.40
!!!SMS-shelfwork: 006-002 M
!!!SMS-variant:
!!!SMS-altvar:
!!!NIFC-rismid: 1001154492
!!!URL-scan: http://repozytorium.nifc.pl/skany/pl-kk-nut--i-40
!!!ONB-nifc: UWAGA: części Mszy: 1. Kyrie, 2. Et in terra, 3. Sanctus, 4. Agnus Dei. Skan 0009-0010
!!!key:
**kern	**text
*Iempty	*
*I"Baſso Ripieno.	*
*clefF3	*
*k[b-]	*
*g:	*
*M2/1	*
*met(c|)	*
=1-	=1-
*2\right	*
!LO:TX:a:t=P:problem=w źródle znaki przykluczowe B- i BB-, zapisane jeden nad drugim	!
2.G\	Et
!LO:TX:t=P:problem=kreska pseudotaktowa	!
4G\	in
2G\	ter-
!LO:TX:t=P:problem=kreska pseudotaktowa	!
2D/	-ra
=2-	=2-
2F/	pax
!LO:TX:t=P:problem=kreska pseudotaktowa	!
2BB-/	ho-
2C/	-mi-
!LO:TX:t=P:problem=kreska pseudotaktowa	!
2D/	-ni-
=3-	=3-
2G,<\	-b(us)
4G\	bo-
!LO:TX:t=P:problem=kreska pseudotaktowa	!
4G\	-nae
2F/	vo-
2D/	lun-
=4-	=4-
1E-X	-ta-
!LO:TX:t=P:problem=kreska pseudotaktowa	!
1D	-tis
=5-	=5-
!LO:TX:t=P:problem=kreska pseudotaktowa	!
1r	.
1B-	be-
=6-	=6-
2A\	-ne-
2.B-\	-di-
4E-X/	-ci-
!LO:TX:t=P:problem=kreska pseudotaktowa	!
2F\	-mus
=7-	=7-
2BB-/	te
1B-	a-
!LO:TX:t=P:problem=kreska pseudotaktowa	!
2B-\	-do-
=8-	=8-
1G	-ra-
!LO:TX:t=P:problem=kreska pseudotaktowa	!
1d	-mus
=9-	=9-
!LO:TX:t=P:problem=kreska pseudotaktowa	!
1A	Te
1d	glo-
=10-	=10-
2c\	-ri-
!LO:TX:t=P:problem=kreska pseudotaktowa	!
2G\	-fi-
2A\	-ca-
2A\	-m(us)
=11-	=11-
!LO:TX:t=P:problem=kreska pseudotaktowa	!
1D	Te
!LO:LB:g=original	!
00r	.
=12-	=12-
.	.
=13-	=13-
2.B-\	pro-
!LO:TX:t=P:problem=kreska pseudotaktowa	!
4B-\	-pter
=14-	=14-
2B-\	ma-
!LO:TX:t=P:problem=kreska pseudotaktowa	!
2B-\	-gna(m)
1G	glo-
=15-	=15-
2A\	-ri-
2B-\	-am
!LO:TX:t=P:problem=kreska pseudotaktowa	!
1A	tu-
=16-	=16-
2D,</	-am
2.D/	Do-
4D/	-mi-
!LO:TX:t=P:problem=kreska pseudotaktowa	!
2F/	-ne
=17-	=17-
2E/ny	De-
2.D/	-us
4E/	.
4F/	Rex
!LO:TX:t=P:problem=kreska pseudotaktowa	!
4G/	.
=18-	=18-
4A\	.
4B-\	.
1c	.
!LO:TX:t=P:problem=kreska pseudotaktowa	!
2Bn\	cae-
=19-	=19-
2c\	-le-
2.d\	.
!LO:TX:a:t=P:problem=# above	!
8c#X\L	.
8B-y\J	.
!LO:TX:t=P:problem=kreska pseudotaktowa	!
2c#\	.
=20-	=20-
2d,>\	-stis
1B-	De-
1F\	-us
=21-	=21-
!LO:TX:t=P:problem=kreska pseudotaktowa	!
[<2D/	Pa-
*cue	*
!LO:N:xstem	!
4D/]	.
*Xcue	*
4E/	.
!LO:TX:t=P:problem=kreska pseudotaktowa	!
2F/	.
=22-	=22-
2C,</	-ter
!LO:TX:t=P:problem=kreska pseudotaktowa	!
2G\	O-
!LO:LB:g=original	!
2c\ny	-mni-
2F\	-po-
=23-	=23-
!LO:TX:t=P:problem=kreska pseudotaktowa	!
1G	-tens
2.F\	Do-
4F\	-mi-
=24-	=24-
2F\	-ne
!LO:TX:t=P:problem=kreska pseudotaktowa	!
2B-\	Fi-
2F,>\	-li
4G/	U-
!LO:TX:t=P:problem=kreska pseudotaktowa	!
4D/	-ni
=25-	=25-
2G\	ge-
2A\	-ni-
!LO:TX:t=P:problem=kreska pseudotaktowa	!
1D	-te
=26-	=26-
0G	Je-
=27-	=27-
0E-X	-su
=28-	=28-
1G	X-
!LO:TX:t=P:problem=kreska pseudotaktowa	!
1D	-te
=29-	=29-
1r	.
2r	.
4G\	Do-
!LO:TX:t=P:problem=kreska pseudotaktowa	!
4A\	-mi-
=30-	=30-
2B-\	-ne
2c\	De-
2B-,>\	-us
!LO:TX:t=P:problem=kreska pseudotaktowa	!
2F\	a-
=31-	=31-
2G,>\	-gn(us)
2E-X/	De-
!LO:TX:t=P:problem=kreska pseudotaktowa	!
1F	-i
=32-	=32-
2r	.
1B-	Fi-
2B-\	-li-
=33-	=33-
!LO:TX:t=P:problem=kreska pseudotaktowa	!
1F	-(us)
1C	Pa-
=34-	=34-
!LO:TX:t=P:problem=podwójna kreska pseudotaktowa	!
0D;>	-tris.
!LO:PB:g=original	!
=35||-	=35||-
*k[b-]	*
*M2/1	*
*met(c|)	*
!LO:TX:a:t=P:problem=w źródle znaki przykluczowe B- i BB-, zapisane jeden nad drugim	!
1G	Qui
2G\	tol-
!LO:TX:t=P:problem=kreska pseudotaktowa	!
2G\	-lis
=36-	=36-
2F\	pec-
!LO:TX:t=P:problem=kreska pseudotaktowa	!
2B-\	-ca-
2G\	-ta
!LO:TX:t=P:problem=kreska pseudotaktowa	!
2A\	mun-
=37-	=37-
2D,</	-di
1d	mi-
!LO:TX:t=P:problem=kreska pseudotaktowa	!
2c\	-ſe-
=38-	=38-
2B-\	-re-
2A\	-re
1G	no-
=39-	=39-
!LO:TX:t=P:problem=kreska pseudotaktowa	!
1F	-bis
2rC	.
2BB-/	qui
=40-	=40-
1E-X	tol-
2BB-/	-lis
!LO:TX:t=P:problem=kreska pseudotaktowa	!
2BB-/	pec-
=41-	=41-
2F\	-ca-
2G\	-ta
!LO:TX:t=P:problem=kreska pseudotaktowa	!
1D	mun-
=42-	=42-
2C,</	-di
1c	Sus-
2F\	-ci-
=43-	=43-
!LO:TX:t=P:problem=kreska pseudotaktowa	!
1F	-pe
1.B-	de-
=44-	=44-
!LO:TX:t=P:problem=kreska pseudotaktowa	!
2B-\	-pre-
2G\	-ca-
!LO:TX:t=P:problem=kreska pseudotaktowa	!
2G\	-ti-
=45-	=45-
2E-X/	-o-
2E-/	-(ne)m
1C	no-
=46-	=46-
!LO:TX:t=P:problem=kreska pseudotaktowa	!
1D	-stram
!LO:LB:g=original	!
2r	.
!LO:TX:t=P:problem=kreska pseudotaktowa	!
2G\	Qui
=47-	=47-
1G	se-
2F/	-des
!LO:TX:t=P:problem=kreska pseudotaktowa	!
2D/	ad
=48-	=48-
1.F	dex-
2E/ny	-te-
=49-	=49-
2D,</	-ram
4B-\	Pa-
!LO:TX:t=P:problem=kreska pseudotaktowa	!
4A\	.
4G\	.
4F\	.
4F/	.
8E/L	.
!LO:TX:t=P:problem=kreska pseudotaktowa	!
8D/J	.
=50-	=50-
1E	-tris
!LO:TX:t=P:problem=kreska pseudotaktowa	!
1D	.
=51-	=51-
2.A\	mi-
4A\	-ſe-
2B-\	-re-
!LO:TX:t=P:problem=kreska pseudotaktowa	!
2c\	-re
=52-	=52-
1d	no-
!LO:TX:t=P:problem=kreska pseudotaktowa	!
1A	-bis.
=53-	=53-
2rB	.
2.B-\	Quo-
4B-\	-ni-
!LO:TX:t=P:problem=kreska pseudotaktowa	!
2B-\	-am
=54-	=54-
2E-X/	Tu
1B-	so-
!LO:TX:t=P:problem=kreska pseudotaktowa	!
2G\	-lus
=55-	=55-
1d	San-
!LO:TX:t=P:problem=kreska pseudotaktowa	!
1G	-ct(us)
=56-	=56-
2r	.
2d\	Tu
2c#X\	so-
!LO:TX:t=P:problem=kreska pseudotaktowa	!
2d\	-lus
!LO:LB:g=original	!
=57-	=57-
2A\	Do-
2D/	-mi-
!LO:TX:t=P:problem=kreska pseudotaktowa	!
1G	-n(us)
=58-	=58-
2r	.
2F\	Tu
2G\	so-
!LO:TX:t=P:problem=kreska pseudotaktowa	!
2F\	-l(us)
=59-	=59-
2r	.
2F\	al-
2.B-\	-tiſ-
4B-\	-si-
=60-	=60-
!LO:TX:t=P:problem=kreska pseudotaktowa	!
1A	-m(us)
1r	.
=61-	=61-
1G	Je-
!LO:TX:t=P:problem=kreska pseudotaktowa	!
1d	-su
=62-	=62-
1B-	X-
!LO:TX:t=P:problem=kreska pseudotaktowa	!
0A	-te.
=63-	=63-
1G	Cum
=64-	=64-
2B-\	S(an)-
!LO:TX:t=P:problem=kreska pseudotaktowa	!
2d\	-cto
2G\	Spi-
2G\	-ri-
=65-	=65-
!LO:TX:t=P:problem=kreska pseudotaktowa	!
1D	-tu
2G\	in
4G\	glo-
4G\	-ri-
=66-	=66-
2E,</ny	-a
2G\	De-
2F\	-i
!LO:TX:t=P:problem=kreska pseudotaktowa	!
2F\	Pa-
=67-	=67-
2D/	-tris
4r	.
*	*ij
4d\	in
4d\	glo-
4d\	-ri-
!LO:TX:t=P:problem=kreska pseudotaktowa	!
2B-\	-a
=68-	=68-
2G\	De-
2B-\	-i
2c\ny	Pa-
!LO:TX:t=P:problem=kreska pseudotaktowa	!
2G\	-tris
*	*Xij
=69-	=69-
!LO:TX:t=P:problem=kreska pseudotaktowa	!
1rc	.
2G\	in
4G\	glo-
*custos:F	*
!LO:TX:t=P:problem=kreska pseudotaktowa	!
4B-\	-ri-
!LO:LB:g=original	!
=70-	=70-
2F/	-a
!LO:TX:t=P:problem=kreska pseudotaktowa	!
2G/	De-
2D/	-i
2D/	Pa-
=71-	=71-
!LO:TX:t=P:problem=kreska pseudotaktowa	!
1G	-tris
1C	a-
=72-	=72-
!LO:TX:t=P:problem=podwójna kreska pseudotaktowa	!
0G;>	-men.
=||-	=||-
*-	*-
!!!RDF**kern: > = above
!!!RDF**kern: < = below
!!!EED: Antoni Szymański
!!!EST: 2021-07-31
!!!AIN: 1 empty
!!!ENC: Andrzej Gręziak
!!!END: 2021-07-05
